assets/pao.svg

<svg width="20" height="20" viewBox="-0.5 0 17 17" xmlns="http://www.w3.org/2000/svg"><path style="fill:currentColor" d="M12.942 9.189a9 9 0 0 1 1.173-.666 19 19 0 0 0-1.561-1.973 9 9 0 0 0-2.564.557c-1.673.643-2.354-.227-.771-1.311a8.4 8.4 0 0 1 1.685-.879 21 21 0 0 0-2.243-1.752 9 9 0 0 0-2.395.548c-1.671.642-2.354-.228-.769-1.311.291-.199.598-.371.911-.532C3.859.668 1.6.515.523 1.697c-1.719 1.884 1.365 5.196 5.479 8.944 4.111 3.748 7.691 6.514 9.412 4.629.973-1.068.767-3.001-.339-5.158-.467.1-.925.219-1.362.388-1.674.643-2.356-.226-.771-1.311" fill="#434343" class="si-glyph-fill"/></svg>

<?xml version="1.0" encoding="utf-8"?>
<!-- Uploaded to: SVG Repo, www.svgrepo.com, Generator: SVG Repo Mixer Tools -->
<svg width="20px" height="20px" viewBox="-0.5 0 17 17" version="1.1" xmlns="http://www.w3.org/2000/svg" xmlns:xlink="http://www.w3.org/1999/xlink">

<g>
    <path style="fill:currentColor;"
        d="M12.942,9.189 C13.314,8.937 13.707,8.715 14.115,8.523 C13.664,7.867 13.144,7.204 12.554,6.55 C11.662,6.618 10.796,6.798 9.99,7.107 C8.317,7.75 7.636,6.88 9.219,5.796 C9.744,5.438 10.31,5.148 10.904,4.917 C10.167,4.259 9.413,3.671 8.661,3.165 C7.83,3.243 7.023,3.423 6.266,3.713 C4.595,4.355 3.912,3.485 5.497,2.402 C5.788,2.203 6.095,2.031 6.408,1.87 C3.859,0.668 1.6,0.515 0.523,1.697 C-1.196,3.581 1.888,6.893 6.002,10.641 C10.113,14.389 13.693,17.155 15.414,15.27 C16.387,14.202 16.181,12.269 15.075,10.112 C14.608,10.212 14.15,10.331 13.713,10.5 C12.039,11.143 11.357,10.274 12.942,9.189 L12.942,9.189 Z" fill="#434343" class="si-glyph-fill">
    </path>
</g>
</svg>
